X: 9548
T: Dauntless, The
R: jig
M: 6/8
K: Aminor
A,DE =F2A|GEC DE=F|AAA GEC|DED CA,G,|
A,DE =F2A|GEC DE=F|=fed edc|Addd3:|
=f3 edc|Add cAG|DCD EDE|FED CA,G,|
A,DE =F2A|GEC DE=F|=fed edc|Addd3:|
_B,3A,3|_B,2 C D2 E|=FED EDC|DCA, G,A,_B,|
A,DE =F2A|GEC DE=F|=fed edc|Addd3:|

